Papirus/16x16/apps/winemine.svg

<?xml version="1.0" encoding="UTF-8" standalone="no"?>
<svg xmlns="http://www.w3.org/2000/svg" height="16" width="16" version="1">
 <rect style="fill:#48aeff" ry=".857" rx=".857" transform="matrix(0,-1,-1,0,0,0)" height="16" width="16" y="-16" x="-16"/>
 <path style="fill:#ffffff" d="m 7.1590542,4.0000353 c -0.08715,0.00923 -0.164748,0.079207 -0.180697,0.1630895 l -0.106449,0.5283146 a 3.5002944,3.5000967 0 0 0 -1.21493,0.7139197 L 5.0904872,5.2188039 c -0.08878,-0.029771 -0.196482,0.00918 -0.244161,0.087892 l -0.821337,1.3877383 c -0.0463,0.079797 -0.02648,0.1902453 0.04492,0.2500069 l 0.490277,0.4189566 a 3.5002944,3.5000967 0 0 0 -0.06055,0.6367176 3.5002944,3.5000967 0 0 0 0.06055,0.6377176 l -0.490287,0.4187613 c -0.0714,0.059762 -0.09123,0.1702097 -0.04492,0.2500069 l 0.821337,1.3867389 c 0.04768,0.07868 0.155422,0.117668 0.244161,0.08789 l 0.566441,-0.18653 a 3.5002944,3.5000967 0 0 0 1.21493,0.71487 l 0.106454,0.528315 c 0.01758,0.08963 0.105483,0.160869 0.199237,0.162114 h 1.644673 c 0.0938,-0.001 0.181698,-0.0725 0.199198,-0.162004 l 0.106453,-0.529315 a 3.5002944,3.5000967 0 0 0 1.2149308,-0.71387 l 0.566441,0.18653 c 0.08874,0.02978 0.196487,-0.0092 0.244161,-0.08789 l 0.821337,-1.3867389 c 0.0463,-0.079797 0.02648,-0.1902452 -0.04492,-0.2500069 L 11.439821,8.6379429 a 3.5002944,3.5000967 0 0 0 0.06055,-0.6377176 3.5002944,3.5000967 0 0 0 -0.06055,-0.6377176 l 0.490277,-0.4179816 c 0.0714,-0.059762 0.09123,-0.1702097 0.04493,-0.2500069 L 11.153691,5.3067809 C 11.106131,5.2279839 10.998193,5.1891176 10.90953,5.2188889 L 10.342539,5.405444 A 3.5002944,3.5000967 0 0 0 9.1275582,4.6905743 L 9.0210602,4.1622097 c -0.0175,-0.089613 -0.105499,-0.1608695 -0.199148,-0.1620995 h -1.644673 c -0.0064,-1.457e-4 -0.01215,-1.457e-4 -0.01855,0 z"/>
</svg>

<?xml version="1.0" encoding="UTF-8" standalone="no"?>
<svg xmlns="http://www.w3.org/2000/svg" height="16" width="16" version="1">
 <rect ry=".857" rx=".857" transform="matrix(0,-1,-1,0,0,0)" height="16" width="16" y="-16" x="-16" fill="#48aeff"/>
 <path style="fill:#ffffff" d="M 7.159057,4.0000353 C 7.071908,4.0092653 6.9943097,4.0792423 6.9783599,4.1631248 L 6.8719116,4.6914393 A 3.5002943,3.5000967 0 0 0 5.6569809,5.4053591 L 5.0904899,5.2188039 c -0.088783,-0.029771 -0.1964818,0.00918 -0.2441611,0.087892 L 4.0249919,6.6944343 c -0.046304,0.079797 -0.026482,0.1902453 0.044924,0.2500069 L 4.5601931,7.3633978 A 3.5002943,3.5000967 0 0 0 4.4996391,8.000116 3.5002943,3.5000967 0 0 0 4.5601931,8.637833 L 4.0699059,9.056595 c -0.071399,0.05976 -0.091234,0.170209 -0.044924,0.250007 l 0.8213369,1.386738 c 0.047679,0.07868 0.1554225,0.117668 0.2441611,0.08789 l 0.566441,-0.18653 a 3.5002943,3.5000967 0 0 0 1.2149307,0.71487 l 0.1064533,0.528315 c 0.017587,0.08963 0.1054833,0.160869 0.1992368,0.162114 h 1.6446739 c 0.093799,-0.001 0.1816973,-0.0725 0.199197,-0.162004 L 9.1278659,11.30868 a 3.5002943,3.5000967 0 0 0 1.2149311,-0.71387 l 0.566441,0.18653 c 0.08874,0.02978 0.196487,-0.0092 0.244161,-0.08789 l 0.821337,-1.386738 c 0.0463,-0.0798 0.02648,-0.190246 -0.04492,-0.250007 L 11.439823,8.637943 a 3.5002943,3.5000967 0 0 0 0.06055,-0.637717 3.5002943,3.5000967 0 0 0 -0.06055,-0.6377178 L 11.9301,6.9445266 c 0.0714,-0.059762 0.09123,-0.1702097 0.04492,-0.2500069 L 11.153683,5.3067813 C 11.106124,5.2279842 10.998186,5.1891181 10.909522,5.2188889 L 10.342531,5.4054441 A 3.5002943,3.5000967 0 0 0 9.1275506,4.6905743 L 9.0210523,4.1622098 C 9.0035526,4.0725973 8.9155538,4.0013403 8.8219053,4.0001103 H 7.1772317 c -0.00643,-1.457e-4 -0.012156,-1.457e-4 -0.018557,0 z"/>
</svg>
